X: 1
P: Bergmans Polska
R: Orsa-polska
O: efter Bj\"orn St\aabi
M: 3/4
L: 1/8
K: GDor
|: G>B (d>e) d2 | Tc2 (B/c/)B/A/ {BA}B>d | f>g ({g}fe/f/) {f}ge/g/ |1,3 (3f2d2c2 TBA :|2,4 ~f2 d4- | d2 d4 :|
|: (g~f) d4 | ({d}c/d/c/A/) TB2 A2 | (g/a/g/f/) d4 | {d}TcA/c/ ~B2 A2 | {^FGF}G>A {ABA}B>d ((3BGB) |1,3 ((3A^FA) GB d2 :|2,4 ((3A^FA) G4 :|
